X: 2989
T: Bath Star, The
R: jig
M: 6/8
K: Gmajor
FAd f2 d|fge f3|aba fed|FAd e2 d|
Adf a2 b|afe def|gfe fed|BdA B2 A:|
AdA eAf|gfe fed|BdA Bef|gfe B2 A|
AdA eAf|gfe fga|bag fed|cBA GFE:|

